X:1
T:Blomstertid, 76.76 D
T:Blomstertid, 76.76 D
T:Swedish Koralbok, 1697
T:Public Domain Courtesy of the Cyber Hymnal™
C:Swedish Koralbok, 1697
Z:Public Domain
Z:Courtesy of the Cyber Hymnal™
%%score ( 1 2 ) ( 3 4 )
L:1/8
Q:1/4=115
M:4/4
K:F
V:1 treble 
V:2 treble 
V:3 bass 
V:4 bass 
V:1
 [FA]2 | [EA]2 [DG]2 [CF]2 [CE]2 | F4 [A,F]2 [FA]2 | [Cc]2 [Fc]2 B2 [FB]2 | [FA]6 [FA]2 | %5
 [EA]2 [DG]2 [CF]2 [CE]2 | F4 [A,F]2 [FA]2 | [Cc]2 [Fc]2 B2 [EB]2 | [FA]6 [FA]2 | %9
 [Fd]2 [Fc]2 B2 [FA]2 | G4 [EG]2 [FA]2 | [FB]2 [EB]2 [FA]2 [FA]2 | [EG]6 G2 | %13
 [FA]2 [EG]2 [DF]2 [CE]2 x | D4 [A,D]2 [G,C]2 | [A,D]2 [DF]2 [CF]2 [CE]2 | [CF]6 |] %17
V:2
 x2 | x8 | (C2 B,2) x4 | x4 (FE) x2 | x8 | x8 | (C2 B,2) x4 | x4 (FD) x2 | x8 | x4 (DE) x2 | %10
 (G2 D2) x4 | x8 | x6 G2 | x9 | (C2 B,2) x4 | x8 | x6 |] %17
V:3
 [F,,C]2 | [A,,C]2 [B,,B,]2 [C,A,]2 [C,G,]2 | [D,F,]4 F,2 [D,F,]2 | %3
 [E,G,]2 [F,A,]2 [G,B,]2 [G,,B,]2 | [F,,C]6 [F,,C]2 | [G,,C]2 [B,,B,]2 [C,A,]2 [C,G,]2 | %6
 [D,F,]4 F,2 [D,F,]2 | [E,G,]2 [F,A,]2 [G,B,]2 [G,,B,]2 | [F,,C]6 [A,,C]2 | %9
 [B,,B,]2 [F,A,]2 [G,B,]2 [F,C]2 | ([E,C]2 [G,=B,]2) [C,C]2 [F,C]2 | [D,B,]2 [G,B,]2 [F,C]2 C2 | %12
 [C,C]6 [E,C]2 | [F,C]2 [C,C]2 A,3 z G, | [B,,F,]2 [G,,G,]2 [D,F,]2 [E,G,]2 | %15
 [D,F,]2 (B,A,) [C,G,]2 [C,G,]2 | [F,A,]6 |] %17
V:4
 x2 | x8 | x4 F,2 x2 | x8 | x8 | x8 | x4 F,2 x2 | x8 | x8 | x8 | x8 | x6 (A,,B,,) | x8 | %13
 x4 D,2 A,,2 x | x8 | x2 B,,2 x4 | x6 |] %17

